X:1
T:Ha che voi piu
T:Ha che voi piu
T:Jhan Gero
T:Source : Trium vocum cantiones---Nürnberg---J.Petreius---1541. Editor : André Vierendeels (19/04/16).
T:Notes : Original clefs : C2, C3, F3 Editorial accidentals above the staff Original note values have been halved
T:#
T:©
T:©
T:©
T:©
C:Jhan Gero
Z:©
%%score [ 1 2 3 ]
L:1/8
Q:1/4=120
M:2/2
K:C
V:1 treble-8 nm="Tenor 1" snm="T 1"
V:2 treble-8 nm="Tenor 2" snm="T 2"
V:3 treble-8 nm="Tenor 3" snm="T 3"
V:1
 z4 g4 | e2 g2 f2 e2 | d2 d2 e2 a2- | ag g4 f2 | g4 z2 c2 | A2 c2 B2 A2 | G3 A B2 c2- | cBAG A4 | %8
w: Ha|che voi piu cru-|ciarm' a- mor fal-|* * la- *|ce, ha|che voi piu cru-|ciarm' a- mor fal-|* * * * la-|
 G2 g2 g2 g2 | e2 g2 gfed | c2 e3 d c2 | d2 c4 B2 | G2 g2 g2 g2 | e2 g3 fed | c2 e3 d c2 | %15
w: ce, con tu- e|pa- ro- le _ _ _|_ fal- * *||se, con tu- e|pa- ro- * * *||
 d2 c4 B2 | c8 | z2 G2 c3 B | c2 d2 e2 d2 | z2 G2 c3 B | c2 d2 e2 d2 | z2 c2 d2 d2 | e3 d c2 B2 | %23
w: le fal- *|se,|tu fai che|tu co- gno- sco,|tu fai che|tu co- gno- sco|che sott' il|dol- ce por- ti|
 c3 B A4 | G4 c4 | c2 c2 A2 A2 | d4 B4 | c4 A2 c2- | c2 BA B4 | c2 c2 f2 e2 | f2 g2 a2 gf | %31
w: sem- pr'il to-|sco, ben|che del er- ror|mio m'ac-|cor- ga tar-||do, il tem- po|spin- ge- ram' el _|
 e2 a2 g3 g | f2 e2 d4 | c2 c2 f2 e2 | f2 g2 a2 gf | e2 a2 g4 | f2 e2 d4 | c8- | c8- | c8 |] %40
w: foch' _ _ ov'|ar- * *|do, il tem- po|spin- ge- ram' el _|foch' _ _|ov'- * ar-|do.|_||
V:2
 z8 | z2 c2 A2 c2 | B2 A2 G2 c2 | B2 G2 A4 | G2 g2 e2 g2 | f2 e2 d2 d2 | e3 f g2 a2- | %7
w: |Ha che voi|piu cru- ciam' a-|mor fal- la-|ce, ha che voi|piu cru- ciarm' a-|mor _ _ fal-|
"^#" ag g4 f2 | g4 z2 g2 | g2 g2 e2 g2 | a2 gf e2 f2- | fedc d4 | c4 z2 g2 | g2 g2 e2 g2 | %14
w: * la- * *|ce, con|tu- e pa- ro-|le _ _ _ fal-||se, con|tu- e pa- ro-|
 a2 gf e2 f2- | fedc d4 | c4 z2 G2 | c3 B c2 d2 | e2 d2 z2 G2 | c3 B c2 d2 | e2 d2 z2 g2 | %21
w: * * * le fal-||se, tu|fai che tu co-|gno- sco, tu|fai che tu co-|gno- sco che|
 g2 f2 g4- | g2 e2 f2 g2 |"^#" a2 g4 f2 | g4 e4 | e2 e2 f2 f2 | f4 d4 | e4 c2 c2 | f8 | %29
w: sott' il dol-|* ce por- ti|sem- pr'il to-|sco, ben|che del er- ror|mio m'ac-|cor- ga tar-||
 e3 d/c/ d2 c2 | z2 G2 c2 B2 | c2 d2 e3 e | d2 c4 B2 | c3 B A2 G2 | z2 G2 c2 B2 | c2 d2 e3 e | %36
w: * * * * do,|il tem- po|spin- ge- ram' el|foch' ov' ar-|* * * do,|il tem- po|spin- ge- ram' el|
 d2 c4 B2 | c3 B AG A2- | A2 G2 A4 | G8 |] %40
w: foch' ov' ar-|||do.|
V:3
 G4 E2 G2- | GF E2 D2 C2 | G2 F2 E2 C2 | E4 D4 | z4 C4 | D2 C2 G2 F2 | E6 C2 | E2 E2 D4 | G8 | %9
w: Ha che voi|_ piu cru- ciarm' a-|mor fal- la- *|* ce,|ha|che voi piu cru-|ciarm' a-|mor fal- la-|ce,|
 z2 c2 c2 c2 | A2 c3 BAG | F2 A2 G4 | C8 | z2 c2 c2 c2 | A2 c3 BAG | F2 A2 G4 | C2 C2 F3 E | %17
w: con tu- e|pa- ro- * * *|* le fal-|se,|con tu- e|pa- ro- * * *|* le fal-|se, tu fai che|
 F2 G2 A2 G2 | z2 G2 c3 B | c2 d2 e2 d2 | z2 G2 c2 B2 | A2 A2 A2 G2 | c3 B A2 G2 | F2 G2 D4 | %24
w: tu co- gno- sco,|tu fai- che|tu co- gno- sco|che sott' il|dol- ce por- ti|sem- * * pr'il|to- * *|
 G4 A4 | A2 A2 F2 F2 | D4 G4 | E4 F2 E2 | D8 | C4 z2 C2 | F2 E2 F2 G2 | A2 F2 EFGA | _B2 c2 G4 | %33
w: sco, ben|che del er- ror|mio m'ac-|cor- ga tar-||do, il|tem- po spin- ge-|ram' el foch' _ _ _|_ ov' ar-|
 C4 z2 C2 | F2 E2 F2 G2 | A2 GF E2 C2 | D2 E2 F2 G2 | A3 G FE F2- | F2 E2 F4 | C8 |] %40
w: do, il|tem- po spin- ge-|ram' _ _ _ el|foch' ov' ar- *|||do.|

